Adwaita++/status/16/mail-attachment.svg

<svg height="16.001" width="16" xmlns="http://www.w3.org/2000/svg">
  <g fill="#474747">
    <path d="m5.985 5.015a1 1 0 0 1 -.985-1.015c0-1.426.76-2.748 1.992-3.463a3.985 3.985 0 0 1 3.993 0 4.006 4.006 0 0 1 1.994 3.463 1 1 0 1 1 -2 0c0-.717-.38-1.375-.996-1.732a1.975 1.975 0 0 0 -1.987 0 1.998 1.998 0 0 0 -.996 1.732 1 1 0 0 1 -1.015 1.014zm1.515 6.986a2.515 2.515 0 0 1 -2.5-2.5 1 1 0 1 1 2 0c0 .288.212.5.5.5s.5-.212.5-.5a1 1 0 1 1 2 0c0 1.37-1.13 2.5-2.5 2.5z"/>
    <path d="m8.985 4.988a1 1 0 0 0 -.985 1.012v3.47a1 1 0 1 0 2 0v-3.469a1 1 0 0 0 -1.015-1.013zm3-2a1 1 0 0 0 -.985 1.012v6.817a1 1 0 1 0 2 0v-6.817a1 1 0 0 0 -1.015-1.013zm-6 0a1 1 0 0 0 -.985 1.012v5.406a1 1 0 1 0 2 0v-5.405a1 1 0 0 0 -1.015-1.013zm-3 1a1 1 0 0 0 -.985 1.012v6a1 1 0 1 0 2 0v-6a1 1 0 0 0 -1.015-1.013z"/>
    <path d="m12.037 9.99a1 1 0 0 0 -.838.412l-2.699 3.6h-2.006l-2.699-3.544a1 1 0 1 0 -1.59 1.211l3 3.938a1 1 0 0 0 .795.393h3a1 1 0 0 0 .8-.4l3-4a1 1 0 0 0 -.763-1.611z"/>
  </g>
</svg>

<svg xmlns="http://www.w3.org/2000/svg" width="16" height="16.001">
    <g color="#000" font-weight="400" font-family="sans-serif" white-space="normal" fill="#474747">
        <path d="M5.985 5.015A1 1 0 0 1 5 4c0-1.426.76-2.748 1.992-3.463a3.985 3.985 0 0 1 3.993 0 4.006 4.006 0 0 1 1.994 3.463 1 1 0 1 1-2 0c0-.717-.38-1.375-.996-1.732a1.975 1.975 0 0 0-1.987 0A1.998 1.998 0 0 0 7 4a1 1 0 0 1-1.015 1.014zM7.5 12.001a2.515 2.515 0 0 1-2.5-2.5 1 1 0 1 1 2 0c0 .288.212.5.5.5.288 0 .5-.212.5-.5a1 1 0 1 1 2 0c0 1.37-1.13 2.5-2.5 2.5z" style="line-height:normal;font-variant-ligatures:normal;font-variant-position:normal;font-variant-caps:normal;font-variant-numeric:normal;font-variant-alternates:normal;font-feature-settings:normal;text-indent:0;text-align:start;text-decoration-line:none;text-decoration-style:solid;text-decoration-color:#000;text-transform:none;text-orientation:mixed;shape-padding:0;isolation:auto;mix-blend-mode:normal" overflow="visible"/>
        <path d="M8.985 4.988A1 1 0 0 0 8 6V9.47a1 1 0 1 0 2 0V6.001a1 1 0 0 0-1.015-1.013zM11.985 2.988A1 1 0 0 0 11 4v6.817a1 1 0 1 0 2 0V4a1 1 0 0 0-1.015-1.013zM5.985 2.988A1 1 0 0 0 5 4v5.406a1 1 0 1 0 2 0V4.001a1 1 0 0 0-1.015-1.013zM2.985 3.988A1 1 0 0 0 2 5v6a1 1 0 1 0 2 0v-6a1 1 0 0 0-1.015-1.013z" style="line-height:normal;font-variant-ligatures:normal;font-variant-position:normal;font-variant-caps:normal;font-variant-numeric:normal;font-variant-alternates:normal;font-feature-settings:normal;text-indent:0;text-align:start;text-decoration-line:none;text-decoration-style:solid;text-decoration-color:#000;text-transform:none;text-orientation:mixed;shape-padding:0;isolation:auto;mix-blend-mode:normal;marker:none" overflow="visible"/>
        <path d="M12.037 9.99a1 1 0 0 0-.838.412l-2.699 3.6H6.494l-2.699-3.544a1 1 0 1 0-1.59 1.211l3 3.938A1 1 0 0 0 6 16h3a1 1 0 0 0 .8-.4l3-4a1 1 0 0 0-.763-1.611z" style="line-height:normal;font-variant-ligatures:normal;font-variant-position:normal;font-variant-caps:normal;font-variant-numeric:normal;font-variant-alternates:normal;font-feature-settings:normal;text-indent:0;text-align:start;text-decoration-line:none;text-decoration-style:solid;text-decoration-color:#000;text-transform:none;text-orientation:mixed;shape-padding:0;isolation:auto;mix-blend-mode:normal;marker:none" overflow="visible"/>
    </g>
</svg>
